**harm	**harte	**timestamp	**phrase	**leadinstrument	**kern
*M4/4	*M4/4	*	*	*	*
*A-:	*A-:	*	*	*	*A-:
1r;	N	0	.	r	1r;
=1	=1	=1	=1	=1	=1
*>A_intro	*>A_intro	*>A_intro	*>A_intro	*>A_intro	*>A_intro
1I	A-:maj	0.372	newline	r	1A- 1cc 1ee-
=2	=2	=2	=2	=2	=2
1I	A-:maj	2.486	.	r	1A- 1cc 1ee-
=3	=3	=3	=3	=3	=3
1I	A-:maj	4.6	.	r	1A- 1cc 1ee-
=4	=4	=4	=4	=4	=4
1I	A-:maj	6.714	.	r	1A- 1cc 1ee-
=5	=5	=5	=5	=5	=5
*>B_verse	*>B_verse	*>B_verse	*>B_verse	*>B_verse	*>B_verse
1I	A-:maj	8.828	newline	voice	1A- 1cc 1ee-
=6	=6	=6	=6	=6	=6
1I	A-:maj	10.929	.	voice	1A- 1cc 1ee-
=7	=7	=7	=7	=7	=7
1I	A-:maj	13.03	.	voice	1A- 1cc 1ee-
=8	=8	=8	=8	=8	=8
1I	A-:maj	15.131	.	voice	1A- 1cc 1ee-
=9	=9	=9	=9	=9	=9
1I	A-:maj	17.232	newline	voice	1A- 1cc 1ee-
=10	=10	=10	=10	=10	=10
1I	A-:maj	19.331	.	voice	1A- 1cc 1ee-
=11	=11	=11	=11	=11	=11
1I	A-:maj	21.429	.	voice	1A- 1cc 1ee-
=12	=12	=12	=12	=12	=12
1I	A-:maj	23.527	.	voice	1A- 1cc 1ee-
=13	=13	=13	=13	=13	=13
*>C_chorus	*>C_chorus	*>C_chorus	*>C_chorus	*>C_chorus	*>C_chorus
1IV	D-:maj	25.625	newline	voice	1D- 1f 1a-
=14	=14	=14	=14	=14	=14
1IV	D-:maj	27.707	.	voice	1D- 1f 1a-
=15	=15	=15	=15	=15	=15
1I	A-:maj	29.789	.	voice	1A- 1cc 1ee-
=16	=16	=16	=16	=16	=16
1I	A-:maj	31.872	.	voice	1A- 1cc 1ee-
=17	=17	=17	=17	=17	=17
1V	E-:maj	33.954	newline	voice	1E- 1g 1b-
=18	=18	=18	=18	=18	=18
1IV	D-:maj	36.065	.	voice	1D- 1f 1a-
=19	=19	=19	=19	=19	=19
1I	A-:maj	38.177	.	voice	1A- 1cc 1ee-
=20	=20	=20	=20	=20	=20
1I	A-:maj	40.288	.	voice	1A- 1cc 1ee-
=21	=21	=21	=21	=21	=21
*>A_trans	*>A_trans	*>A_trans	*>A_trans	*>A_trans	*>A_trans
1I	A-:maj	42.4	newline	voice	1A- 1cc 1ee-
=22	=22	=22	=22	=22	=22
1I	A-:maj	44.487	.	voice	1A- 1cc 1ee-
=23	=23	=23	=23	=23	=23
1I	A-:maj	46.575	.	voice	1A- 1cc 1ee-
=24	=24	=24	=24	=24	=24
1I	A-:maj	48.663	.	voice	1A- 1cc 1ee-
=25	=25	=25	=25	=25	=25
1I	A-:maj	50.751	newline	voice	1A- 1cc 1ee-
=26	=26	=26	=26	=26	=26
1I	A-:maj	52.853	.	voice	1A- 1cc 1ee-
=27	=27	=27	=27	=27	=27
1I	A-:maj	54.955	.	voice	1A- 1cc 1ee-
=28	=28	=28	=28	=28	=28
1I	A-:maj	57.057	.	voice	1A- 1cc 1ee-
=29	=29	=29	=29	=29	=29
1I	A-:maj	59.16	newline	voice	1A- 1cc 1ee-
=30	=30	=30	=30	=30	=30
1I	A-:maj	61.239	.	voice	1A- 1cc 1ee-
=31	=31	=31	=31	=31	=31
1I	A-:maj	63.318	.	voice	1A- 1cc 1ee-
=32	=32	=32	=32	=32	=32
1I	A-:maj	65.398	.	voice	1A- 1cc 1ee-
=33	=33	=33	=33	=33	=33
1I	A-:maj	67.477	newline	voice	1A- 1cc 1ee-
=34	=34	=34	=34	=34	=34
1I	A-:maj	69.59	.	voice	1A- 1cc 1ee-
=35	=35	=35	=35	=35	=35
*>B_verse	*>B_verse	*>B_verse	*>B_verse	*>B_verse	*>B_verse
1I	A-:maj	71.703	newline	voice	1A- 1cc 1ee-
=36	=36	=36	=36	=36	=36
1I	A-:maj	73.815	.	voice	1A- 1cc 1ee-
=37	=37	=37	=37	=37	=37
1I	A-:maj	75.928	.	voice	1A- 1cc 1ee-
=38	=38	=38	=38	=38	=38
1I	A-:maj	78.04	.	voice	1A- 1cc 1ee-
=39	=39	=39	=39	=39	=39
1I	A-:maj	80.152	newline	voice	1A- 1cc 1ee-
=40	=40	=40	=40	=40	=40
1I	A-:maj	82.253	.	voice	1A- 1cc 1ee-
=41	=41	=41	=41	=41	=41
1I	A-:maj	84.353	.	voice	1A- 1cc 1ee-
=42	=42	=42	=42	=42	=42
1I	A-:maj	86.453	.	voice	1A- 1cc 1ee-
=43	=43	=43	=43	=43	=43
*>C_chorus	*>C_chorus	*>C_chorus	*>C_chorus	*>C_chorus	*>C_chorus
1IV	D-:maj	88.553	newline	voice	1D- 1f 1a-
=44	=44	=44	=44	=44	=44
1IV	D-:maj	90.645	.	voice	1D- 1f 1a-
=45	=45	=45	=45	=45	=45
1I	A-:maj	92.737	.	voice	1A- 1cc 1ee-
=46	=46	=46	=46	=46	=46
1I	A-:maj	94.829	.	voice	1A- 1cc 1ee-
=47	=47	=47	=47	=47	=47
1V	E-:maj	96.921	newline	voice	1E- 1g 1b-
=48	=48	=48	=48	=48	=48
1IV	D-:maj	99.023	.	voice	1D- 1f 1a-
=49	=49	=49	=49	=49	=49
1I	A-:maj	101.124	.	voice	1A- 1cc 1ee-
=50	=50	=50	=50	=50	=50
1I	A-:maj	103.225	.	voice	1A- 1cc 1ee-
=51	=51	=51	=51	=51	=51
*>A_trans	*>A_trans	*>A_trans	*>A_trans	*>A_trans	*>A_trans
1I	A-:maj	105.327	newline	voice	1A- 1cc 1ee-
=52	=52	=52	=52	=52	=52
1I	A-:maj	107.433	.	voice	1A- 1cc 1ee-
=53	=53	=53	=53	=53	=53
1I	A-:maj	109.539	.	voice	1A- 1cc 1ee-
=54	=54	=54	=54	=54	=54
1I	A-:maj	111.644	.	voice	1A- 1cc 1ee-
=55	=55	=55	=55	=55	=55
1I	A-:maj	113.75	newline	voice	1A- 1cc 1ee-
=56	=56	=56	=56	=56	=56
1I	A-:maj	115.857	.	voice	1A- 1cc 1ee-
=57	=57	=57	=57	=57	=57
1I	A-:maj	117.963	.	voice	1A- 1cc 1ee-
=58	=58	=58	=58	=58	=58
1I	A-:maj	120.069	.	voice	1A- 1cc 1ee-
=59	=59	=59	=59	=59	=59
*>B_verse	*>B_verse	*>B_verse	*>B_verse	*>B_verse	*>B_verse
1I	A-:maj	122.175	newline	voice	1A- 1cc 1ee-
=60	=60	=60	=60	=60	=60
1I	A-:maj	124.282	.	voice	1A- 1cc 1ee-
=61	=61	=61	=61	=61	=61
1I	A-:maj	126.388	.	voice	1A- 1cc 1ee-
=62	=62	=62	=62	=62	=62
1I	A-:maj	128.495	.	voice	1A- 1cc 1ee-
=63	=63	=63	=63	=63	=63
1I	A-:maj	130.601	newline	voice	1A- 1cc 1ee-
=64	=64	=64	=64	=64	=64
1I	A-:maj	132.692	.	voice	1A- 1cc 1ee-
=65	=65	=65	=65	=65	=65
1I	A-:maj	134.782	.	voice	1A- 1cc 1ee-
=66	=66	=66	=66	=66	=66
1I	A-:maj	136.873	.	voice	1A- 1cc 1ee-
=67	=67	=67	=67	=67	=67
*>C_chorus	*>C_chorus	*>C_chorus	*>C_chorus	*>C_chorus	*>C_chorus
1IV	D-:maj	138.963	newline	voice	1D- 1f 1a-
=68	=68	=68	=68	=68	=68
1IV	D-:maj	141.073	.	voice	1D- 1f 1a-
=69	=69	=69	=69	=69	=69
1I	A-:maj	143.184	.	voice	1A- 1cc 1ee-
=70	=70	=70	=70	=70	=70
1I	A-:maj	145.294	.	voice	1A- 1cc 1ee-
=71	=71	=71	=71	=71	=71
1#IV	D:maj	147.404	newline	voice	1D 1f# 1a
=72	=72	=72	=72	=72	=72
1IV	D-:maj	149.509	.	voice	1D- 1f 1a-
=73	=73	=73	=73	=73	=73
1I	A-:maj	151.614	.	voice	1A- 1cc 1ee-
=74	=74	=74	=74	=74	=74
1I	A-:maj	153.719	.	voice	1A- 1cc 1ee-
=75	=75	=75	=75	=75	=75
*>A_solo	*>A_solo	*>A_solo	*>A_solo	*>A_solo	*>A_solo
1I	A-:maj	155.824	newline	guitar	1A- 1cc 1ee-
=76	=76	=76	=76	=76	=76
1I	A-:maj	157.893	.	guitar	1A- 1cc 1ee-
=77	=77	=77	=77	=77	=77
1I	A-:maj	159.962	.	guitar	1A- 1cc 1ee-
=78	=78	=78	=78	=78	=78
1I	A-:maj	162.03	.	guitar	1A- 1cc 1ee-
=79	=79	=79	=79	=79	=79
1I	A-:maj	164.099	newline	guitar	1A- 1cc 1ee-
=80	=80	=80	=80	=80	=80
1I	A-:maj	166.192	.	guitar	1A- 1cc 1ee-
=81	=81	=81	=81	=81	=81
1I	A-:maj	168.285	.	guitar	1A- 1cc 1ee-
=82	=82	=82	=82	=82	=82
1I	A-:maj	170.378	.	guitar	1A- 1cc 1ee-
=83	=83	=83	=83	=83	=83
1I	A-:maj	172.471	newline	guitar	1A- 1cc 1ee-
=84	=84	=84	=84	=84	=84
1I	A-:maj	174.56	.	guitar	1A- 1cc 1ee-
=85	=85	=85	=85	=85	=85
1I	A-:maj	176.648	.	guitar	1A- 1cc 1ee-
=86	=86	=86	=86	=86	=86
1I	A-:maj	178.737	.	guitar	1A- 1cc 1ee-
=87	=87	=87	=87	=87	=87
*>_fadeout	*>_fadeout	*>_fadeout	*>_fadeout	*>_fadeout	*>_fadeout
1I	A-:maj	180.825	newline	guitar	1A- 1cc 1ee-
=88	=88	=88	=88	=88	=88
1I	A-:maj	182.488	.	guitar	1A- 1cc 1ee-
=89	=89	=89	=89	=89	=89
1I	A-:maj	184.152	.	guitar	1A- 1cc 1ee-
=90	=90	=90	=90	=90	=90
1I	A-:maj	185.815	.	guitar	1A- 1cc 1ee-
1r;	N	187.478	.	r	1r;
1r;	N	190.772	.	r	1r;
*-	*-	*-	*-	*-	*-
!!!OTL: You Can't Judge A Book By The Cover
!!!COC: Bo Diddley
!!!BillboardChartDate: 1962/09/01
!!!BillboardPeak: 48
!!!BillboardWeeksOnChart: 10
!!!SampleTargetRank: 67
!!!SampleActualRank: 66
!!!SampleID#: 0179
!!!RDF**harmony: **recip + pitch class of root + harmonic quality
!!!RDF**harte: Chris Harte's syntax, used by MIREX
!!!RDF**phrase: newline = linebreak in original McGill transcription
!!!RDF**timestamp: McGill audio timestamp in seconds
!!!RDF**leadinstrument: original McGill primary instrumentation annotation
!!!RDT: 2017/01/12/
!!!ENC: Nathaniel Condit-Schultz
!!!EST: Awating manual error checking and editing.
